X: 2
T: The Pipe On The Hob
R: jig
M: 6/8
L: 1/8
K: Ador
|:B|c3 edc| edc BAG|~A3 ~g3|eaf ged|
~c3 edc|edc deg|age dBe| ABA A2:|
|:f|~g3 gea|age edB|~A3 ~g3|eaa gef|
~g3 gea|age d (3efg|age dBe|ABA A2:|
|:B|~c3 dcd|ecA AGE|~c3 dcd|ecA A2B|cBc dcd|
ede gab|1 age dBe|ABA A2:|2 age dBG|ABA A3||


Tune 81	Setting 81

